X:10050016
T:Pach Pi S1.2  8* JS
O:Brittany
M:4/4
A:Brittany
Z:BAGAD CAP CAVAL
C:trad Breton, from John Skelton
G:
K:Em
L:1/8
Q:1/4=220  "    Drone E"
|:E2G2 FEDE| F2F2G2E2|E2G2 FEDE| F2 GF E4:|
E2B2 AGFG| A2A2G2F2|E2G2 FEDE| F2F2G2F2|
E2B2 AGFG| A2A2G2F2|E2G2 FEDE| F2GF E4||

%%newpage
